static/img/pictograms/picto-pack/picto-articles-midaubergine.svg

<svg xmlns="http://www.w3.org/2000/svg" width="400" height="400" viewBox="0 0 400 400"><g><path fill="#5E2750" d="M341.414 58.58C303.642 20.805 253.424 0 200.004 0 146.577 0 96.356 20.805 58.583 58.58 20.808 96.36 0 146.58 0 200.002 0 253.42 20.807 303.648 58.586 341.42 96.36 379.195 146.583 400 200.006 400c53.422 0 103.64-20.804 141.408-58.58C379.194 303.65 400 253.426 400 200.002S379.19 96.352 341.414 58.58zM319.997 340c0 2.76-2.24 5-5 5h-230C82.24 345 80 342.76 80 340V60c0-2.763 2.24-5 4.998-5h230c2.76 0 5 2.24 5 5v280zm-20-217.5h-200V97.502h200V122.5zm0 50h-200v-25h200v25zm0 49.998h-200V197.5h200v24.998zm-70 50H99.995V247.5h130.002v24.998z"/></g></svg>

<?xml version="1.0" encoding="utf-8"?>
<!-- Generator: Adobe Illustrator 17.0.2, SVG Export Plug-In . SVG Version: 6.00 Build 0)  -->
<!DOCTYPE svg PUBLIC "-//W3C//DTD SVG 1.1//EN" "http://www.w3.org/Graphics/SVG/1.1/DTD/svg11.dtd">
<svg version="1.1" xmlns="http://www.w3.org/2000/svg" xmlns:xlink="http://www.w3.org/1999/xlink" x="0px" y="0px" width="400px"
	 height="400px" viewBox="0 0 400 400" enable-background="new 0 0 400 400" xml:space="preserve">
<g id="BK" display="none">
	<rect x="-1100" y="-80" display="inline" fill="#FFFFFF" width="5100" height="4060"/>
</g>
<g id="Comp">
	<g id="_x37_8">
		<path fill="#5E2750" d="M341.414,58.58c-37.772-37.775-87.99-58.579-141.411-58.579c-53.425,0-103.646,20.803-141.418,58.579
			C20.807,96.359,0,146.581,0,200.002c0,53.418,20.807,103.646,58.586,141.418c37.775,37.775,87.997,58.579,141.421,58.579
			c53.421,0,103.639-20.803,141.407-58.579C379.193,303.651,400,253.426,400,200.002S379.19,96.352,341.414,58.58z M319.997,340.001
			c0,2.759-2.24,4.999-4.999,4.999h-230c-2.759,0-4.999-2.24-4.999-4.999V59.999c0-2.762,2.24-4.999,4.999-4.999h230
			c2.759,0,4.999,2.24,4.999,4.999V340.001z M299.998,122.5h-200V97.502h200V122.5L299.998,122.5z M299.998,172.499h-200v-24.998
			h200V172.499L299.998,172.499z M299.998,222.498h-200v-24.998h200V222.498L299.998,222.498z M229.997,272.498H99.995V247.5
			h130.002V272.498L229.997,272.498z"/>
	</g>
</g>
</svg>
